X:1
T: Miss Charlotte Toll's Strathspey
M: C|
B: James Campbell's Collection 1798
Z: source from Highland Music Trust, chords by Gary Whaley
L: 1/8
K:E
[|: "E" e<e g>e "A" (cd/e/) "E" B>G | "A" (FA/c/) (c/B/A/G/) "E" G>F "A"F>G | \
"E" e<e g>e "A" (cd/e/) "E" B>a | "E"(g,b) "B" (f>a) "E" (g<e) e2 :|]
[|"E" (G>B) "A" (c>B) (e>B) (c>B) | "E" (B<B) "A" (c>B) "B" (A>B) (F>A) | \
"E" (G>B) "A" (c>B) "E" (e>B) "A" (c>B) | "E" c>e "B" (3(BcA) "E" (G<E) E2 |
| "E" (G>B) "A" (c>B) (e>B) (c>B) | "E" (B<B) "A" (c>B) "B" (A>B) (F>A) | \
"E" G>E "E7" B,>G "A" A>c "B" B>a | "E" (g/b/a/g/ "B" (f/a/g/f/) "E" (G<E) E2 |] 